static/assets/images/icons/settings.svg

<svg width="256" height="256" viewBox="0 0 256 256" fill="none" xmlns="http://www.w3.org/2000/svg">
<path d="M18 193.714C18 186.456 23.8731 180.571 31.118 180.571H123.155C126.05 175.56 130.52 171.644 135.869 169.429C141.219 167.215 147.15 166.827 152.744 168.324C158.337 169.822 163.279 173.122 166.804 177.713C170.329 182.303 172.24 187.928 172.24 193.714C172.24 199.501 170.329 205.125 166.804 209.716C163.279 214.307 158.337 217.607 152.744 219.104C147.15 220.602 141.219 220.213 135.869 217.999C130.52 215.785 126.05 211.868 123.155 206.857H31.118C23.8731 206.857 18 200.973 18 193.714ZM185.391 180.571H224.882C232.127 180.571 238 186.456 238 193.714C238 200.973 232.127 206.857 224.882 206.857H185.391V180.571ZM57.3943 114.857H31.118C23.8731 114.857 18 120.741 18 128C18 135.259 23.8731 141.143 31.118 141.143H57.3943C60.2896 146.154 64.7586 150.07 70.1083 152.285C75.4581 154.499 81.3895 154.888 86.9827 153.39C92.5758 151.892 97.5182 148.592 101.043 144.002C104.568 139.411 106.479 133.786 106.479 128C106.479 122.214 104.568 116.589 101.043 111.998C97.5182 107.408 92.5758 104.108 86.9827 102.61C81.3895 101.112 75.4581 101.501 70.1083 103.715C64.7586 105.93 60.2896 109.846 57.3943 114.857ZM238 128C238 120.741 232.127 114.857 224.882 114.857H119.63V141.143H224.882C232.127 141.143 238 135.259 238 128ZM123.155 49.1429H31.118C23.8731 49.1429 18 55.0271 18 62.2857C18 69.5443 23.8731 75.4286 31.118 75.4286H123.155C126.05 80.4397 130.52 84.3562 135.869 86.5706C141.219 88.7849 147.15 89.1734 152.744 87.6758C158.337 86.1781 163.279 82.8781 166.804 78.2874C170.329 73.6968 172.24 68.0721 172.24 62.2857C172.24 56.4993 170.329 50.8746 166.804 46.284C163.279 41.6933 158.337 38.3933 152.744 36.8957C147.15 35.398 141.219 35.7865 135.869 38.0009C130.52 40.2152 126.05 44.1317 123.155 49.1429ZM238 62.2857C238 55.0271 232.127 49.1429 224.882 49.1429H185.391V75.4286H224.882C232.127 75.4286 238 69.5443 238 62.2857Z" fill="black"/>
</svg>

<svg xmlns="http://www.w3.org/2000/svg" fill="none" viewBox="0 0 256 256"><path fill="#000" d="M18 193.714c0-7.258 5.873-13.143 13.118-13.143h92.037a26.3 26.3 0 0 1 12.714-11.142 26.33 26.33 0 0 1 16.875-1.105 26.3 26.3 0 0 1 14.06 9.389 26.27 26.27 0 0 1 0 32.003 26.3 26.3 0 0 1-14.06 9.388 26.32 26.32 0 0 1-16.875-1.105 26.3 26.3 0 0 1-12.714-11.142H31.118c-7.245 0-13.118-5.884-13.118-13.143m167.391-13.143h39.491c7.245 0 13.118 5.885 13.118 13.143s-5.873 13.143-13.118 13.143h-39.491zM57.394 114.857H31.118C23.873 114.857 18 120.741 18 128s5.873 13.143 13.118 13.143h26.276a26.3 26.3 0 0 0 12.714 11.142 26.32 26.32 0 0 0 30.935-8.283 26.276 26.276 0 0 0 0-32.004 26.32 26.32 0 0 0-30.935-8.283 26.3 26.3 0 0 0-12.714 11.142M238 128c0-7.259-5.873-13.143-13.118-13.143H119.63v26.286h105.252c7.245 0 13.118-5.884 13.118-13.143M123.155 49.143H31.118C23.873 49.143 18 55.027 18 62.286c0 7.258 5.873 13.143 13.118 13.143h92.037a26.3 26.3 0 0 0 12.714 11.142 26.32 26.32 0 0 0 16.875 1.105 26.3 26.3 0 0 0 14.06-9.389 26.274 26.274 0 0 0 0-32.003 26.3 26.3 0 0 0-14.06-9.388A26.32 26.32 0 0 0 135.869 38a26.3 26.3 0 0 0-12.714 11.142M238 62.286c0-7.259-5.873-13.143-13.118-13.143h-39.491v26.286h39.491c7.245 0 13.118-5.885 13.118-13.143"/></svg>
